small/extra/apps/standard/bluetooth-inactive.svg

<?xml version="1.0" encoding="UTF-8" standalone="no"?>
<!-- Created with Inkscape (http://www.inkscape.org/) -->
<svg id="svg2" xmlns:rdf="http://www.w3.org/1999/02/22-rdf-syntax-ns#" xmlns="http://www.w3.org/2000/svg" height="100%" width="100%" version="1.1" xmlns:cc="http://creativecommons.org/ns#" viewBox="0 0 512 512" xmlns:dc="http://purl.org/dc/elements/1.1/">
 <metadata id="metadata18">
  <rdf:RDF>
   <cc:Work rdf:about="">
    <dc:format>image/svg+xml</dc:format>
    <dc:type rdf:resource="http://purl.org/dc/dcmitype/StillImage"/>
   </cc:Work>
  </rdf:RDF>
 </metadata>
 <rect id="rect4" rx="25.988" height="512" width="512" y="0" x="0" fill="#8a704d"/>
 <g id="g6" style="color:#000000">
  <path id="path8" opacity=".2" d="m32.22 0v512h26.313v-512h-26.313m52.625 0v512h26.344v-512h-26.345m52.656 0v512h26.375v-512h-26.375m52.656 0v512h26.344v-512h-26.344m52.688 0v512h26.313v-512h-26.313m52.656 0v512h26.344v-512h-26.344m52.656 0v512h26.344v-512h-26.344m52.625 0v512h26.375v-512h-26.375m52.656 0 0.031 512h26.313v-512h-26.36m-447.53 9.438c-3.701 4.489-5.906 10.264-5.906 16.563v460c0 6.299 2.205 12.07 5.906 16.563v-493.12m500.22 0.031v493.06c3.684-4.484 5.875-10.249 5.875-16.531v-460c0-6.283-2.191-12.05-5.875-16.531" fill="#fff"/>
  <path id="path10" d="m267.16 41.03c-23.18 3.69-14.993 30.16-16.5 46.656v135.03c-8.527 5.677-17.14 21.877-25.5 7.531-20.639-17.887-37.852-31.74-58.969-49.03-31.06-10.281-27.979 17.865-10.469 35.38 15.734 15.755 31.511 31.469 47.22 47.25-23.21 20.314-47.562 39.454-70.06 60.5-10.667 19.19 13.55 30.916 23.719 43.75 47.97 47.968 95.94 95.94 143.91 143.91h185.5c14.397 0 26-11.603 26-26v-215.44c-47.694-47.755-95.46-95.45-143.5-142.84l-88.59-82.09-5.906-3.594-6.844-1" fill-opacity="0.235"/>
 </g>
 <path id="path12" stroke-linejoin="round" d="m147.26 334.18 84.41-72.27 133.07-113.94-96.66-89.56v395.18l86.71-85.29-199.01-176.26" stroke="#fff" stroke-linecap="round" stroke-width="34.823" fill="none"/>
</svg>

<?xml version="1.0" encoding="UTF-8" standalone="no"?>
<!-- Created with Inkscape (http://www.inkscape.org/) -->

<svg
   xmlns:dc="http://purl.org/dc/elements/1.1/"
   xmlns:cc="http://creativecommons.org/ns#"
   xmlns:rdf="http://www.w3.org/1999/02/22-rdf-syntax-ns#"
   xmlns:svg="http://www.w3.org/2000/svg"
   xmlns="http://www.w3.org/2000/svg"
   xmlns:inkscape="http://www.inkscape.org/namespaces/inkscape"
   version="1.1"
   width="100%"
   height="100%"
   viewBox="0 0 512 512"
   id="svg2">
  <metadata
     id="metadata18">
    <rdf:RDF>
      <cc:Work
         rdf:about="">
        <dc:format>image/svg+xml</dc:format>
        <dc:type
           rdf:resource="http://purl.org/dc/dcmitype/StillImage" />
      </cc:Work>
    </rdf:RDF>
  </metadata>
  <defs
     id="defs16" />
  <rect
     width="512"
     height="512"
     rx="25.988001"
     x="0"
     y="0"
     id="rect4"
     style="fill:#8a704d" />
  <g
     id="g6"
     style="color:#000000">
    <path
       d="M 32.22,0 V 512 H 58.533 V 0 H 32.22 m 52.625,0 v 512 h 26.344 V 0 H 84.845 m 52.656,0 v 512 h 26.375 V 0 h -26.375 m 52.656,0 v 512 h 26.344 V 0 h -26.344 m 52.688,0 v 512 h 26.313 V 0 h -26.313 m 52.656,0 v 512 h 26.344 V 0 h -26.344 m 52.656,0 v 512 h 26.344 V 0 h -26.344 m 52.625,0 v 512 h 26.375 V 0 h -26.375 m 52.656,0 0.031,512 h 26.313 V 0 H 453.438 M 5.908,9.438 C 2.207,13.927 0.002,19.702 0.002,26.001 v 460 c 0,6.299 2.205,12.07 5.906,16.563 V 9.444 m 500.22,0.031 v 493.06 c 3.684,-4.484 5.875,-10.249 5.875,-16.531 v -460 c 0,-6.283 -2.191,-12.05 -5.875,-16.531"
       inkscape:connector-curvature="0"
       id="path8"
       style="opacity:0.2;fill:#ffffff" />
    <path
       d="m 267.16,41.03 c -23.18,3.69 -14.993,30.16 -16.5,46.656 v 135.03 c -8.527,5.677 -17.14,21.877 -25.5,7.531 -20.639,-17.887 -37.852,-31.74 -58.969,-49.03 -31.06,-10.281 -27.979,17.865 -10.469,35.38 15.734,15.755 31.511,31.469 47.22,47.25 -23.21,20.314 -47.562,39.454 -70.06,60.5 -10.667,19.19 13.55,30.916 23.719,43.75 47.97,47.968 95.94,95.94 143.91,143.91 h 185.5 c 14.397,0 26,-11.603 26,-26 v -215.44 c -47.694,-47.755 -95.46,-95.45 -143.5,-142.84 l -88.59,-82.09 -5.906,-3.594 -6.844,-1"
       inkscape:connector-curvature="0"
       id="path10"
       style="fill-opacity:0.23500001" />
  </g>
  <path
     d="M 147.26,334.18 231.67,261.91 364.74,147.97 268.08,58.41 V 453.59 L 354.79,368.3 155.78,192.04"
     inkscape:connector-curvature="0"
     id="path12"
     style="fill:none;stroke:#ffffff;stroke-width:34.82300186;stroke-linecap:round;stroke-linejoin:round" />
</svg>
